svgs/solid/pallet-boxes.svg

<svg xmlns="http://www.w3.org/2000/svg" viewBox="0 0 640 512"><!--! Font Awesome Pro 6.6.0 by @fontawesome - https://fontawesome.com License - https://fontawesome.com/license (Commercial License) Copyright 2024 Fonticons, Inc. --><path d="M64 32C64 14.3 78.3 0 96 0L288 0c17.7 0 32 14.3 32 32l0 192c0 17.7-14.3 32-32 32L96 256c-17.7 0-32-14.3-32-32L64 32zM384 96c0-17.7 14.3-32 32-32l128 0c17.7 0 32 14.3 32 32l0 128c0 17.7-14.3 32-32 32l-128 0c-17.7 0-32-14.3-32-32l0-128zM0 352c0-17.7 14.3-32 32-32l64 0 224 0 224 0 64 0c17.7 0 32 14.3 32 32s-14.3 32-32 32l-32 0 0 64 32 0c17.7 0 32 14.3 32 32s-14.3 32-32 32l-64 0-224 0L96 512l-64 0c-17.7 0-32-14.3-32-32s14.3-32 32-32l32 0 0-64-32 0c-17.7 0-32-14.3-32-32zm128 96l160 0 0-64-160 0 0 64zm224 0l160 0 0-64-160 0 0 64z"/></svg>

<svg xmlns="http://www.w3.org/2000/svg" viewBox="0 0 640 512"><!--! Font Awesome Pro 6.4.0 by @fontawesome - https://fontawesome.com License - https://fontawesome.com/license (Commercial License) Copyright 2023 Fonticons, Inc. --><path d="M64 32C64 14.3 78.3 0 96 0H288c17.7 0 32 14.3 32 32V224c0 17.7-14.3 32-32 32H96c-17.7 0-32-14.3-32-32V32zM384 96c0-17.7 14.3-32 32-32H544c17.7 0 32 14.3 32 32V224c0 17.7-14.3 32-32 32H416c-17.7 0-32-14.3-32-32V96zM0 352c0-17.7 14.3-32 32-32H96 320 544h64c17.7 0 32 14.3 32 32s-14.3 32-32 32H576v64h32c17.7 0 32 14.3 32 32s-14.3 32-32 32H544 320 96 32c-17.7 0-32-14.3-32-32s14.3-32 32-32H64V384H32c-17.7 0-32-14.3-32-32zm128 96H288V384H128v64zm224 0H512V384H352v64z"/></svg>
